Packages/Application/Neos.IdNeosIo/Resources/Public/Images/logo.svg

<?xml version="1.0" encoding="utf-8"?>
<!-- Generator: Adobe Illustrator 15.0.2, SVG Export Plug-In . SVG Version: 6.00 Build 0)  -->
<!DOCTYPE svg PUBLIC "-//W3C//DTD SVG 1.1//EN" "http://www.w3.org/Graphics/SVG/1.1/DTD/svg11.dtd">
<svg version="1.1" id="Layer_1" xmlns="http://www.w3.org/2000/svg" xmlns:xlink="http://www.w3.org/1999/xlink" x="0px" y="0px"
	 width="686px" height="200px" viewBox="0 0 686 200" enable-background="new 0 0 686 200" xml:space="preserve">
<g>
	<polygon fill="#26224C" points="186.155,37.5 165.513,52.662 165.513,84.378 186.155,113.791 	"/>
	<polygon fill="#26224C" points="186.155,150.565 106.797,37.5 97.604,44.273 97.604,162.5 118.247,147.338 118.247,88.79 
		169.865,162.5 192.445,162.5 208.736,150.565 	"/>
	<polygon fill="#00ADEE" points="118.247,88.79 118.247,147.338 97.604,162.5 120.186,162.5 140.829,147.338 140.829,121.038 	"/>
	<polygon fill="#00ADEE" points="186.155,113.791 186.155,37.5 208.736,37.5 208.736,150.565 186.155,150.565 106.797,37.5 
		132.605,37.5 	"/>
	<g>
		<path fill="#26224C" d="M327.328,76.416l32.306,41.035V76.416h7.856v55.561h-6.588L327.725,89.83v42.146h-7.856V76.416H327.328z"
			/>
		<path fill="#26224C" d="M438.214,76.416v7.222h-32.542v16.668h28.972v7.302h-28.972v17.146h32.939v7.224h-40.955V76.416H438.214z"
			/>
		<path fill="#26224C" d="M463.299,104.195c0-15.715,12.065-28.733,28.891-28.733c16.827,0,28.893,13.019,28.893,28.733
			c0,15.716-12.065,28.733-28.893,28.733C475.364,132.929,463.299,119.911,463.299,104.195z M512.748,104.195
			c0-12.143-8.495-21.351-20.559-21.351c-12.062,0-20.557,9.208-20.557,21.351s8.495,21.351,20.557,21.351
			C504.253,125.546,512.748,116.338,512.748,104.195z"/>
		<path fill="#26224C" d="M545.768,123.721l4.919-5.556c5.482,4.922,10.559,7.539,18.021,7.539c6.667,0,11.43-3.412,11.43-8.492
			c0-4.524-2.54-6.904-13.416-9.682c-12.617-3.256-18.968-7.621-18.968-16.51c0-9.208,8.415-15.559,19.206-15.559
			c8.018,0,13.892,2.621,19.606,7.144l-4.603,5.954c-5.24-4.127-9.686-5.873-15.081-5.873c-6.114,0-10.798,3.016-10.798,7.779
			c0,4.603,2.938,7.142,14.21,9.921c12.144,2.936,18.101,7.777,18.101,16.35c0,10-8.576,16.192-19.768,16.192
			C559.736,132.929,552.356,129.675,545.768,123.721z"/>
	</g>
</g>
</svg>

<?xml version="1.0" standalone="no"?>
<!DOCTYPE svg PUBLIC "-//W3C//DTD SVG 1.1//EN" "http://www.w3.org/Graphics/SVG/1.1/DTD/svg11.dtd">
<svg width="100%" height="100%" viewBox="0 0 686 270" version="1.1" xmlns="http://www.w3.org/2000/svg" xmlns:xlink="http://www.w3.org/1999/xlink" xml:space="preserve" style="fill-rule:evenodd;clip-rule:evenodd;stroke-linejoin:round;stroke-miterlimit:1.41421;">
    <g>
        <g transform="matrix(0.635662,0,0,0.635662,124.968,46.705)">
            <path d="M186.155,37.5L165.513,52.662L165.513,84.378L186.155,113.791L186.155,37.5Z" style="fill:rgb(38,34,76);fill-rule:nonzero;"/>
        </g>
        <g transform="matrix(0.635662,0,0,0.635662,124.968,46.705)">
            <path d="M186.155,150.565L106.797,37.5L97.604,44.273L97.604,162.5L118.247,147.338L118.247,88.79L169.865,162.5L192.445,162.5L208.736,150.565L186.155,150.565Z" style="fill:rgb(38,34,76);fill-rule:nonzero;"/>
        </g>
        <g transform="matrix(0.635662,0,0,0.635662,124.968,46.705)">
            <path d="M118.247,88.79L118.247,147.338L97.604,162.5L120.186,162.5L140.829,147.338L140.829,121.038L118.247,88.79Z" style="fill:rgb(0,173,238);fill-rule:nonzero;"/>
        </g>
        <g transform="matrix(0.635662,0,0,0.635662,124.968,46.705)">
            <path d="M186.155,113.791L186.155,37.5L208.736,37.5L208.736,150.565L186.155,150.565L106.797,37.5L132.605,37.5L186.155,113.791Z" style="fill:rgb(0,173,238);fill-rule:nonzero;"/>
        </g>
        <g transform="matrix(0.635662,0,0,0.635662,124.968,46.705)">
            <path d="M327.328,76.416L359.634,117.451L359.634,76.416L367.49,76.416L367.49,131.977L360.902,131.977L327.725,89.83L327.725,131.976L319.869,131.976L319.869,76.416L327.328,76.416Z" style="fill:rgb(38,34,76);fill-rule:nonzero;"/>
            <path d="M438.214,76.416L438.214,83.638L405.672,83.638L405.672,100.306L434.644,100.306L434.644,107.608L405.672,107.608L405.672,124.754L438.611,124.754L438.611,131.978L397.656,131.978L397.656,76.416L438.214,76.416Z" style="fill:rgb(38,34,76);fill-rule:nonzero;"/>
            <path d="M463.299,104.195C463.299,88.48 475.364,75.462 492.19,75.462C509.017,75.462 521.083,88.481 521.083,104.195C521.083,119.911 509.018,132.928 492.19,132.928C475.364,132.929 463.299,119.911 463.299,104.195ZM512.748,104.195C512.748,92.052 504.253,82.844 492.189,82.844C480.127,82.844 471.632,92.052 471.632,104.195C471.632,116.338 480.127,125.546 492.189,125.546C504.253,125.546 512.748,116.338 512.748,104.195Z" style="fill:rgb(38,34,76);fill-rule:nonzero;"/>
            <path d="M545.768,123.721L550.687,118.165C556.169,123.087 561.246,125.704 568.708,125.704C575.375,125.704 580.138,122.292 580.138,117.212C580.138,112.688 577.598,110.308 566.722,107.53C554.105,104.274 547.754,99.909 547.754,91.02C547.754,81.812 556.169,75.461 566.96,75.461C574.978,75.461 580.852,78.082 586.566,82.605L581.963,88.559C576.723,84.432 572.277,82.686 566.882,82.686C560.768,82.686 556.084,85.702 556.084,90.465C556.084,95.068 559.022,97.607 570.294,100.386C582.438,103.322 588.395,108.163 588.395,116.736C588.395,126.736 579.819,132.928 568.627,132.928C559.736,132.929 552.356,129.675 545.768,123.721Z" style="fill:rgb(38,34,76);fill-rule:nonzero;"/>
        </g>
    </g>
</svg>
